dist/img/logo.svg

<?xml version="1.0" encoding="UTF-8"?>
<svg width="170px" height="71px" viewBox="0 0 170 71" version="1.1" xmlns="http://www.w3.org/2000/svg" xmlns:xlink="http://www.w3.org/1999/xlink">
    <!-- Generator: Sketch 48.2 (47327) - http://www.bohemiancoding.com/sketch -->
    <title>logo</title>
    <desc>Created with Sketch.</desc>
    <defs></defs>
    <g id="Desktop-HD" stroke="none" stroke-width="1" fill="none" fill-rule="evenodd" transform="translate(-135.000000, -30.000000)">
        <g id="header" fill="#FFFFFF">
            <g id="nav" transform="translate(135.000000, 30.000000)">
                <g id="logo">
                    <g id="Group-3">
                        <path d="M24,0 L29,0 L29,62 L24,62 L24,6 L13,6 L13,62 L8,62 L8,6 L5.9936728,6 L2,-4.56397576e-15 L24,-5.91108724e-15 Z M5,64 L16,64 L16,8 L21,8 L21,64 L32,64 L32,8 L37,8 L37,70 L32,70 L5,70 L2.84217094e-14,70 L2.84217094e-14,8 L5,8 L5,64 Z" id="Combined-Shape"></path>
                        <path d="M48.92,33 L48.92,12 L51.17,12 L51.17,30.93 L56.36,30.93 L56.36,12 L58.61,12 L58.61,30.93 L63.8,30.93 L63.8,12 L66.05,12 L66.05,33 L48.92,33 Z M70.89,12 L80.22,12 L80.22,14.07 L73.14,14.07 L73.14,21.18 L79.65,21.18 L79.65,23.25 L73.14,23.25 L73.14,30.93 L80.37,30.93 L80.37,33 L70.89,33 L70.89,12 Z M94.99,19.26 L95.17,16.5 L95.08,16.5 L94.03,19.32 L86.26,33 L84.76,33 L84.76,12 L87.01,12 L87.01,25.95 L86.8,28.65 L86.92,28.65 L87.97,25.83 L95.77,12 L97.24,12 L97.24,33 L94.99,33 L94.99,19.26 Z M89.11,6.9 C89.1500002,7.6400037 89.3549982,8.2299978 89.725,8.67 C90.0950018,9.1100022 90.5999968,9.33 91.24,9.33 C91.8800032,9.33 92.3749982,9.1100022 92.725,8.67 C93.0750017,8.2299978 93.2799997,7.6500036 93.34,6.93 L95.26,7.38 C95.0999992,8.5200057 94.6900033,9.3999969 94.03,10.02 C93.3699967,10.6400031 92.4300061,10.95 91.21,10.95 C90.0299941,10.95 89.0550038,10.6700028 88.285,10.11 C87.5149962,9.5499972 87.0700006,8.6500062 86.95,7.41 L89.11,6.9 Z M108.53,30.66 C108.249999,30.7200003 107.920002,30.7599999 107.54,30.78 C107.159998,30.8000001 106.800002,30.81 106.46,30.81 C105.679996,30.81 104.965003,30.6600015 104.315,30.36 C103.664997,30.0599985 103.100002,29.5750034 102.62,28.905 C102.139998,28.2349966 101.765001,27.3750053 101.495,26.325 C101.224999,25.2749948 101.09,24.0000075 101.09,22.5 C101.09,19.6799859 101.614995,17.5350074 102.665,16.065 C103.715005,14.5949927 105.139991,13.86 106.94,13.86 C107.160001,13.86 107.434998,13.8699999 107.765,13.89 C108.095002,13.9100001 108.349999,13.9399998 108.53,13.98 L108.53,11.4 L110.78,11.4 L110.78,14.07 C111.060001,13.9699995 111.409998,13.9100001 111.83,13.89 C112.250002,13.8699999 112.589999,13.86 112.85,13.86 C113.630004,13.86 114.349997,14.0249983 115.01,14.355 C115.670003,14.6850016 116.239998,15.1899966 116.72,15.87 C117.200002,16.5500034 117.569999,17.4149947 117.83,18.465 C118.090001,19.5150053 118.22,20.7599928 118.22,22.2 C118.22,23.6800074 118.070002,24.9599946 117.77,26.04 C117.469998,27.1200054 117.060003,28.0099965 116.54,28.71 C116.019997,29.4100035 115.405004,29.9349982 114.695,30.285 C113.984996,30.6350018 113.230004,30.81 112.43,30.81 C112.249999,30.81 111.980002,30.7950001 111.62,30.765 C111.259998,30.7349999 110.980001,30.6800004 110.78,30.6 L110.78,33.6 L108.53,33.6 L108.53,30.66 Z M112.46,15.81 C112.239999,15.81 111.950002,15.8199999 111.59,15.84 C111.229998,15.8600001 110.940001,15.9199995 110.72,16.02 L110.72,28.77 C110.880001,28.8100002 111.099999,28.835 111.38,28.845 C111.660001,28.8550001 111.909999,28.86 112.13,28.86 C113.250006,28.86 114.159997,28.3150055 114.86,27.225 C115.560004,26.1349946 115.91,24.4600113 115.91,22.2 C115.91,21.2399952 115.835001,20.3700039 115.685,19.59 C115.534999,18.8099961 115.315001,18.1400028 115.025,17.58 C114.734999,17.0199972 114.375002,16.5850016 113.945,16.275 C113.514998,15.9649985 113.020003,15.81 112.46,15.81 Z M106.94,28.86 C107.120001,28.86 107.384998,28.8550001 107.735,28.845 C108.085002,28.835 108.369999,28.7800005 108.59,28.68 L108.59,15.93 C108.389999,15.8899998 108.150001,15.8600001 107.87,15.84 C107.589999,15.8199999 107.340001,15.81 107.12,15.81 C106.019994,15.81 105.125003,16.3599945 104.435,17.46 C103.744997,18.5600055 103.4,20.2399887 103.4,22.5 C103.4,24.4800099 103.704997,26.0349944 104.315,27.165 C104.925003,28.2950057 105.799994,28.86 106.94,28.86 Z M122.07,12 L131.4,12 L131.4,14.07 L124.32,14.07 L124.32,21.18 L130.83,21.18 L130.83,23.25 L124.32,23.25 L124.32,30.93 L131.55,30.93 L131.55,33 L122.07,33 L122.07,12 Z M135.94,12.21 C136.580003,12.0299991 137.259996,11.9100003 137.98,11.85 C138.700004,11.7899997 139.409997,11.76 140.11,11.76 C140.910004,11.76 141.699996,11.8499991 142.48,12.03 C143.260004,12.2100009 143.964997,12.5399976 144.595,13.02 C145.225003,13.5000024 145.734998,14.1599958 146.125,15 C146.515002,15.8400042 146.71,16.9099935 146.71,18.21 C146.71,19.4700063 146.525002,20.5399956 146.155,21.42 C145.784998,22.3000044 145.295003,23.0149973 144.685,23.565 C144.074997,24.1150028 143.375004,24.5149988 142.585,24.765 C141.794996,25.0150013 140.980004,25.14 140.14,25.14 L139.75,25.14 C139.569999,25.14 139.380001,25.1350001 139.18,25.125 C138.979999,25.1149999 138.785001,25.1000001 138.595,25.08 C138.404999,25.0599999 138.27,25.0400001 138.19,25.02 L138.19,33 L135.94,33 L135.94,12.21 Z M140.23,13.83 C139.829998,13.83 139.445002,13.8449999 139.075,13.875 C138.704998,13.9050001 138.410001,13.9499997 138.19,14.01 L138.19,22.95 C138.27,22.9900002 138.394999,23.0149999 138.565,23.025 C138.735001,23.0350001 138.909999,23.045 139.09,23.055 C139.270001,23.0650001 139.444999,23.07 139.615,23.07 L139.99,23.07 C140.550003,23.07 141.089997,23.0000007 141.61,22.86 C142.130003,22.7199993 142.589998,22.4650019 142.99,22.095 C143.390002,21.7249982 143.714999,21.2250031 143.965,20.595 C144.215001,19.9649968 144.34,19.1700048 144.34,18.21 C144.34,17.3699958 144.225001,16.6700028 143.995,16.11 C143.764999,15.5499972 143.465002,15.1000017 143.095,14.76 C142.724998,14.4199983 142.290002,14.1800007 141.79,14.04 C141.289997,13.8999993 140.770003,13.83 140.23,13.83 Z M167.1,19.26 L167.28,16.5 L167.19,16.5 L166.14,19.32 L158.37,33 L156.87,33 L156.87,12 L159.12,12 L159.12,25.95 L158.91,28.65 L159.03,28.65 L160.08,25.83 L167.88,12 L169.35,12 L169.35,33 L167.1,33 L167.1,19.26 Z" id="шейфер-и-copy"></path>
                        <path d="M58.61,51.07 L51.17,51.07 L51.17,70 L48.92,70 L48.92,49 L60.86,49 L60.86,70 L58.61,70 L58.61,51.07 Z M73.77,64.12 L67.83,64.12 L66.15,70 L63.93,70 L70.26,48.67 L71.49,48.67 L77.82,70 L75.48,70 L73.77,64.12 Z M68.43,62.11 L73.23,62.11 L71.4,55.63 L70.83,52.48 L70.77,52.48 L70.2,55.69 L68.43,62.11 Z M80.89,49.21 C81.5300032,49.0299991 82.2099964,48.9100003 82.93,48.85 C83.6500036,48.7899997 84.3599965,48.76 85.06,48.76 C85.860004,48.76 86.6499961,48.8499991 87.43,49.03 C88.2100039,49.2100009 88.9149968,49.5399976 89.545,50.02 C90.1750032,50.5000024 90.684998,51.1599958 91.075,52 C91.465002,52.8400042 91.66,53.9099935 91.66,55.21 C91.66,56.4700063 91.4750019,57.5399956 91.105,58.42 C90.7349981,59.3000044 90.2450031,60.0149973 89.635,60.565 C89.024997,61.1150028 88.3250039,61.5149988 87.535,61.765 C86.744996,62.0150012 85.9300042,62.14 85.09,62.14 L84.7,62.14 C84.5199991,62.14 84.330001,62.1350001 84.13,62.125 C83.929999,62.1149999 83.7350009,62.1000001 83.545,62.08 C83.3549991,62.0599999 83.2200004,62.0400001 83.14,62.02 L83.14,70 L80.89,70 L80.89,49.21 Z M85.18,50.83 C84.779998,50.83 84.3950018,50.8449999 84.025,50.875 C83.6549982,50.9050001 83.3600011,50.9499997 83.14,51.01 L83.14,59.95 C83.2200004,59.9900002 83.3449992,60.0149999 83.515,60.025 C83.6850008,60.0350001 83.8599991,60.0449999 84.04,60.055 C84.2200009,60.0650001 84.3949991,60.07 84.565,60.07 L84.94,60.07 C85.5000028,60.07 86.0399974,60.0000007 86.56,59.86 C87.0800026,59.7199993 87.539998,59.4650019 87.94,59.095 C88.340002,58.7249981 88.6649987,58.2250031 88.915,57.595 C89.1650013,56.9649968 89.29,56.1700048 89.29,55.21 C89.29,54.3699958 89.1750012,53.6700028 88.945,53.11 C88.7149989,52.5499972 88.4150019,52.1000017 88.045,51.76 C87.6749981,51.4199983 87.2400025,51.1800007 86.74,51.04 C86.2399975,50.8999993 85.7200027,50.83 85.18,50.83 Z M106.13,51.07 L100.97,51.07 L100.97,70 L98.72,70 L98.72,51.07 L93.56,51.07 L93.56,49 L106.13,49 L106.13,51.07 Z M119.46,60.31 L111.72,60.31 L111.72,70 L109.47,70 L109.47,49 L111.72,49 L111.72,58.24 L119.46,58.24 L119.46,49 L121.71,49 L121.71,70 L119.46,70 L119.46,60.31 Z M126.55,49 L135.88,49 L135.88,51.07 L128.8,51.07 L128.8,58.18 L135.31,58.18 L135.31,60.25 L128.8,60.25 L128.8,67.93 L136.03,67.93 L136.03,70 L126.55,70 L126.55,49 Z M140.42,49.21 C141.060003,49.0299991 141.739996,48.9100003 142.46,48.85 C143.180004,48.7899997 143.889996,48.76 144.59,48.76 C145.390004,48.76 146.179996,48.8499991 146.96,49.03 C147.740004,49.2100009 148.444997,49.5399976 149.075,50.02 C149.705003,50.5000024 150.214998,51.1599958 150.605,52 C150.995002,52.8400042 151.19,53.9099935 151.19,55.21 C151.19,56.4700063 151.005002,57.5399956 150.635,58.42 C150.264998,59.3000044 149.775003,60.0149973 149.165,60.565 C148.554997,61.1150028 147.855004,61.5149988 147.065,61.765 C146.274996,62.0150012 145.460004,62.14 144.62,62.14 L144.23,62.14 C144.049999,62.14 143.860001,62.1350001 143.66,62.125 C143.459999,62.1149999 143.265001,62.1000001 143.075,62.08 C142.884999,62.0599999 142.75,62.0400001 142.67,62.02 L142.67,70 L140.42,70 L140.42,49.21 Z M144.71,50.83 C144.309998,50.83 143.925002,50.8449999 143.555,50.875 C143.184998,50.9050001 142.890001,50.9499997 142.67,51.01 L142.67,59.95 C142.75,59.9900002 142.874999,60.0149999 143.045,60.025 C143.215001,60.0350001 143.389999,60.0449999 143.57,60.055 C143.750001,60.0650001 143.924999,60.07 144.095,60.07 L144.47,60.07 C145.030003,60.07 145.569997,60.0000007 146.09,59.86 C146.610003,59.7199993 147.069998,59.4650019 147.47,59.095 C147.870002,58.7249981 148.194999,58.2250031 148.445,57.595 C148.695001,56.9649968 148.82,56.1700048 148.82,55.21 C148.82,54.3699958 148.705001,53.6700028 148.475,53.11 C148.244999,52.5499972 147.945002,52.1000017 147.575,51.76 C147.204998,51.4199983 146.770003,51.1800007 146.27,51.04 C145.769997,50.8999993 145.250003,50.83 144.71,50.83 Z M167.52,49 L169.77,49 L169.77,70 L167.52,70 L167.52,49 Z M154.95,49 L157.2,49 L157.2,57.16 C157.380001,57.1199998 157.679998,57.0650004 158.1,56.995 C158.520002,56.9249997 158.929998,56.89 159.33,56.89 C160.110004,56.89 160.854996,56.9799991 161.565,57.16 C162.275004,57.3400009 162.899997,57.6649977 163.44,58.135 C163.980003,58.6050023 164.409998,59.2499959 164.73,60.07 C165.050002,60.8900041 165.21,61.9299937 165.21,63.19 C165.21,65.6300122 164.645006,67.4149944 163.515,68.545 C162.384994,69.6750057 160.81001,70.24 158.79,70.24 C158.329998,70.24 157.735004,70.2150003 157.005,70.165 C156.274996,70.1149997 155.590003,70.0000009 154.95,69.82 L154.95,49 Z M159,68.17 C160.200006,68.17 161.139997,67.7800039 161.82,67 C162.500003,66.2199961 162.84,65.0200081 162.84,63.4 C162.84,62.5199956 162.740001,61.7950029 162.54,61.225 C162.339999,60.6549971 162.065002,60.2000017 161.715,59.86 C161.364998,59.5199983 160.950002,59.2850007 160.47,59.155 C159.989998,59.0249994 159.470003,58.96 158.91,58.96 C158.629999,58.96 158.315002,58.9899997 157.965,59.05 C157.614998,59.1100003 157.360001,59.1699997 157.2,59.23 L157.2,67.96 C157.600002,68.1000007 158.199996,68.17 159,68.17 Z" id="партнеры"></path>
                    </g>
                </g>
            </g>
        </g>
    </g>
</svg>

<svg width="170" height="71" xmlns="http://www.w3.org/2000/svg"><path d="M24 0h5v62h-5V6H13v56H8V6H5.994L2 0h22zM5 64h11V8h5v56h11V8h5v62H0V8h5v56zm43.92-31V12h2.25v18.93h5.19V12h2.25v18.93h5.19V12h2.25v21H48.92zm21.97-21h9.33v2.07h-7.08v7.11h6.51v2.07h-6.51v7.68h7.23V33h-9.48V12zm24.1 7.26l.18-2.76h-.09l-1.05 2.82L86.26 33h-1.5V12h2.25v13.95l-.21 2.7h.12l1.05-2.82L95.77 12h1.47v21h-2.25V19.26zM89.11 6.9c.04.74.245 1.33.615 1.77.37.44.875.66 1.515.66.64 0 1.135-.22 1.485-.66.35-.44.555-1.02.615-1.74l1.92.45c-.16 1.14-.57 2.02-1.23 2.64-.66.62-1.6.93-2.82.93-1.18 0-2.155-.28-2.925-.84-.77-.56-1.215-1.46-1.335-2.7l2.16-.51zm19.42 23.76c-.28.06-.61.1-.99.12-.38.02-.74.03-1.08.03-.78 0-1.495-.15-2.145-.45-.65-.3-1.215-.785-1.695-1.455s-.855-1.53-1.125-2.58-.405-2.325-.405-3.825c0-2.82.525-4.965 1.575-6.435 1.05-1.47 2.475-2.205 4.275-2.205.22 0 .495.01.825.03.33.02.585.05.765.09V11.4h2.25v2.67c.28-.1.63-.16 1.05-.18.42-.02.76-.03 1.02-.03.78 0 1.5.165 2.16.495.66.33 1.23.835 1.71 1.515.48.68.85 1.545 1.11 2.595.26 1.05.39 2.295.39 3.735 0 1.48-.15 2.76-.45 3.84-.3 1.08-.71 1.97-1.23 2.67s-1.135 1.225-1.845 1.575c-.71.35-1.465.525-2.265.525-.18 0-.45-.015-.81-.045-.36-.03-.64-.085-.84-.165v3h-2.25v-2.94zm3.93-14.85c-.22 0-.51.01-.87.03-.36.02-.65.08-.87.18v12.75c.16.04.38.065.66.075.28.01.53.015.75.015 1.12 0 2.03-.545 2.73-1.635.7-1.09 1.05-2.765 1.05-5.025 0-.96-.075-1.83-.225-2.61-.15-.78-.37-1.45-.66-2.01-.29-.56-.65-.995-1.08-1.305a2.474 2.474 0 0 0-1.485-.465zm-5.52 13.05c.18 0 .445-.005.795-.015.35-.01.635-.065.855-.165V15.93c-.2-.04-.44-.07-.72-.09-.28-.02-.53-.03-.75-.03-1.1 0-1.995.55-2.685 1.65-.69 1.1-1.035 2.78-1.035 5.04 0 1.98.305 3.535.915 4.665.61 1.13 1.485 1.695 2.625 1.695zM122.07 12h9.33v2.07h-7.08v7.11h6.51v2.07h-6.51v7.68h7.23V33h-9.48V12zm13.87.21c.64-.18 1.32-.3 2.04-.36s1.43-.09 2.13-.09c.8 0 1.59.09 2.37.27.78.18 1.485.51 2.115.99.63.48 1.14 1.14 1.53 1.98.39.84.585 1.91.585 3.21 0 1.26-.185 2.33-.555 3.21-.37.88-.86 1.595-1.47 2.145s-1.31.95-2.1 1.2-1.605.375-2.445.375h-.39a11.437 11.437 0 0 1-1.155-.06c-.19-.02-.325-.04-.405-.06V33h-2.25V12.21zm4.29 1.62c-.4 0-.785.015-1.155.045s-.665.075-.885.135v8.94c.08.04.205.065.375.075l.525.03c.18.01.355.015.525.015h.375c.56 0 1.1-.07 1.62-.21.52-.14.98-.395 1.38-.765.4-.37.725-.87.975-1.5s.375-1.425.375-2.385c0-.84-.115-1.54-.345-2.1-.23-.56-.53-1.01-.9-1.35-.37-.34-.805-.58-1.305-.72-.5-.14-1.02-.21-1.56-.21zm26.87 5.43l.18-2.76h-.09l-1.05 2.82L158.37 33h-1.5V12h2.25v13.95l-.21 2.7h.12l1.05-2.82 7.8-13.83h1.47v21h-2.25V19.26zM58.61 51.07h-7.44V70h-2.25V49h11.94v21h-2.25V51.07zm15.16 13.05h-5.94L66.15 70h-2.22l6.33-21.33h1.23L77.82 70h-2.34l-1.71-5.88zm-5.34-2.01h4.8l-1.83-6.48-.57-3.15h-.06l-.57 3.21-1.77 6.42zm12.46-12.9c.64-.18 1.32-.3 2.04-.36s1.43-.09 2.13-.09c.8 0 1.59.09 2.37.27.78.18 1.485.51 2.115.99.63.48 1.14 1.14 1.53 1.98.39.84.585 1.91.585 3.21 0 1.26-.185 2.33-.555 3.21-.37.88-.86 1.595-1.47 2.145s-1.31.95-2.1 1.2-1.605.375-2.445.375h-.39a11.437 11.437 0 0 1-1.155-.06c-.19-.02-.325-.04-.405-.06V70h-2.25V49.21zm4.29 1.62c-.4 0-.785.015-1.155.045s-.665.075-.885.135v8.94c.08.04.205.065.375.075l.525.03c.18.01.355.015.525.015h.375c.56 0 1.1-.07 1.62-.21.52-.14.98-.395 1.38-.765.4-.37.725-.87.975-1.5s.375-1.425.375-2.385c0-.84-.115-1.54-.345-2.1-.23-.56-.53-1.01-.9-1.35-.37-.34-.805-.58-1.305-.72-.5-.14-1.02-.21-1.56-.21zm20.95.24h-5.16V70h-2.25V51.07h-5.16V49h12.57v2.07zm13.33 9.24h-7.74V70h-2.25V49h2.25v9.24h7.74V49h2.25v21h-2.25v-9.69zM126.55 49h9.33v2.07h-7.08v7.11h6.51v2.07h-6.51v7.68h7.23V70h-9.48V49zm13.87.21c.64-.18 1.32-.3 2.04-.36s1.43-.09 2.13-.09c.8 0 1.59.09 2.37.27.78.18 1.485.51 2.115.99.63.48 1.14 1.14 1.53 1.98.39.84.585 1.91.585 3.21 0 1.26-.185 2.33-.555 3.21-.37.88-.86 1.595-1.47 2.145s-1.31.95-2.1 1.2-1.605.375-2.445.375h-.39a11.437 11.437 0 0 1-1.155-.06c-.19-.02-.325-.04-.405-.06V70h-2.25V49.21zm4.29 1.62c-.4 0-.785.015-1.155.045s-.665.075-.885.135v8.94c.08.04.205.065.375.075l.525.03c.18.01.355.015.525.015h.375c.56 0 1.1-.07 1.62-.21.52-.14.98-.395 1.38-.765.4-.37.725-.87.975-1.5s.375-1.425.375-2.385c0-.84-.115-1.54-.345-2.1-.23-.56-.53-1.01-.9-1.35-.37-.34-.805-.58-1.305-.72-.5-.14-1.02-.21-1.56-.21zM167.52 49h2.25v21h-2.25V49zm-12.57 0h2.25v8.16c.18-.04.48-.095.9-.165.42-.07.83-.105 1.23-.105.78 0 1.525.09 2.235.27.71.18 1.335.505 1.875.975s.97 1.115 1.29 1.935c.32.82.48 1.86.48 3.12 0 2.44-.565 4.225-1.695 5.355-1.13 1.13-2.705 1.695-4.725 1.695-.46 0-1.055-.025-1.785-.075-.73-.05-1.415-.165-2.055-.345V49zM159 68.17c1.2 0 2.14-.39 2.82-1.17.68-.78 1.02-1.98 1.02-3.6 0-.88-.1-1.605-.3-2.175-.2-.57-.475-1.025-.825-1.365a2.811 2.811 0 0 0-1.245-.705c-.48-.13-1-.195-1.56-.195-.28 0-.595.03-.945.09s-.605.12-.765.18v8.73c.4.14 1 .21 1.8.21z" fill="#FFF" fill-rule="evenodd"/></svg>
